public/img/arrow.svg

<svg width="78" height="60" viewBox="0 0 78 60" fill="none" xmlns="http://www.w3.org/2000/svg">
<path d="M27.2248 58.5875L0.487289 31.9925C0.333089 31.8392 0.210721 31.6569 0.12722 31.4561C0.0437186 31.2553 0.000732422 31.04 0.000732422 30.8225C0.000732422 30.6051 0.0437186 30.3897 0.12722 30.1889C0.210721 29.9882 0.333089 29.8058 0.487289 29.6525L7.23729 22.895C7.88229 22.25 8.92479 22.25 9.56979 22.895L27.1723 40.3925C27.8173 41.0375 28.8673 41.03 29.5123 40.385L68.4073 1.11501C69.0523 0.462511 70.1023 0.462511 70.7548 1.10751L77.5123 7.86501C78.1573 8.51001 78.1573 9.55251 77.5198 10.1975L35.1448 52.955L35.1523 52.9625L29.5648 58.58C28.9198 59.225 27.8698 59.225 27.2248 58.5875Z" fill="#056088"/>
</svg>

<svg width="78" height="60" fill="none" xmlns="http://www.w3.org/2000/svg"><path d="M27.225 58.587L.487 31.992a1.65 1.65 0 010-2.34l6.75-6.757a1.648 1.648 0 012.333 0l17.602 17.497a1.657 1.657 0 002.34-.007l38.895-39.27a1.659 1.659 0 012.348-.007l6.757 6.757c.645.645.645 1.688.008 2.332L35.145 52.956l.007.008-5.587 5.617a1.664 1.664 0 01-2.34.008z" fill="#056088"/></svg>
